X:1
T:Title
%%score { ( 1 3 ) | ( 2 4 ) }
L:1/8
M:4/4
K:D
V:1 treble nm="Grand Piano"
V:3 treble 
V:2 bass 
V:4 bass 
V:1
 z4 z2[Q:1/4=108] [DF]>[EG] | [FA]2 [FA]2 [FA]2 [DF]>[FA] | [Fd]2 [Gd]2 [Fd]2 [Ac]>[GB] | %3
 [FA]2 [FA]>[GB] [FA]2 [DF]2 | [CE]6 [DF]>[EG] | [FA]2 [FA]2 [FA]2 [DF]>[FA] | %6
[M:9/8] [Fd]2 [Ac]- [Ac] B2- Bd>B |[M:4/4] A2 D>G F2 [CE]2 |[M:3/4] D6 |[M:1/4] F>G | %10
[M:4/4] A6 z2 | A2 G2 G2 E>F | G6 z2 | [A,EG]2 [A,DF]2 [A,DF]2 [A,FA]>[A,FA] | %14
 [Fd]2 [Fd]2 [Fd]2 [Gc]>[Ad] |[M:9/8] e2 d- d B2- BB>B |[M:4/4] A2 D>G F2 [CE]2 |[M:3/4] D6 |] %18
V:2
 z4 z2 [D,A,]>[D,A,] | [D,D]2 [D,D]2 [D,D]2 [D,A,]>[D,A,] | [D,A,]2 [D,B,]2 [D,A,]2 [D,D]>[D,D] | %3
 [D,D]2 [D,D]>[D,D] [D,D]2 [D,A,]2 | [A,,A,]6 [D,A,]>[D,A,] | [D,D]2 [D,D]2 [D,D]2 [D,A,]>[D,A,] | %6
[M:9/8] [D,A,]2 [F,D]- [F,D][K:treble] [G,DG]2- [G,DG][G,B,G]>[K:bass][G,D] | %7
[M:4/4] [F,A,D]2 [F,A,]>[G,B,E] [A,D]2 [A,,G,]2 |[M:3/4] [D,F,]6 |[M:1/4][K:treble] D>E | %10
[M:4/4] F6[K:bass] z2 | [A,F]2 [A,E]2 [A,E]2 C>D | E6[K:bass] z2 | D,2 D,2 D,2 D,>D, | %14
 [D,A,]2 [D,A,]2 [D,A,]2 [E,A,]>[F,=C] | %15
[M:9/8][K:treble] [G,B,G]2 [G,B,G]- [G,B,G] [G,DG]2- [G,DG][K:bass][G,D]>[G,D] | %16
[M:4/4] [F,A,D]2 [F,A,]>[G,B,E] [A,D]2 [A,,G,]2 |[M:3/4] [D,F,]6 |] %18
V:3
 x8 | x8 | x8 | x8 | x8 | x8 |[M:9/8] x9 |[M:4/4] x8 |[M:3/4] x6 |[M:1/4] x2 | %10
[M:4/4] z2 D>D D2 [GB]>[FA] | x8 | z2 A,>A, A,2 [A,FA]>[A,EG] | x8 | x8 |[M:9/8] x9 |[M:4/4] x8 | %17
[M:3/4] x6 |] %18
V:4
 x8 | x8 | x8 | x8 | x8 | x8 |[M:9/8] x4[K:treble] x9/2[K:bass] x/ |[M:4/4] x8 |[M:3/4] x6 | %9
[M:1/4][K:treble] x2 |[M:4/4] z2[K:bass] D,>D, D,2 [D,D]>[D,D] | x8 | %12
 z2[K:bass] A,,>A,, A,,2 A,,>A,, | x8 | x8 |[M:9/8][K:treble] x7[K:bass] x2 |[M:4/4] x8 | %17
[M:3/4] x6 |] %18

